X:1
T:Lark On The Strand (Primrose Glen)
R:jig
I:abc2nwc
M:6/8
L:1/8
K:G
(BA)|GEF G2(A|B)AG (ABd)|edd gdd|edB (dBA)|
GEF G2(A|B)AG (ABd)|ed(d g)(dB)|AGF G:|
|:(Bd)|g3efg|af(d e)(dB)|Add fdd|e(d^c) d(ef)|
g3aga|bag f3|edc (BcA)|BGF G:|
